src/pos-icons/racquetball.svg

<svg height="24" viewBox="0 0 24 24" width="24" xmlns="http://www.w3.org/2000/svg"><path d="m18.5 16c1.4 0 2.5 1.1 2.5 2.5s-1.1 2.5-2.5 2.5-2.5-1.1-2.5-2.5 1.1-2.5 2.5-2.5m-8-15c-7.5 0-7.5 2.7-7.5 8.8 0 3.4 3.4 7.1 6 8.3v4.9h3v-4.9c2.6-1.2 6-4.9 6-8.3 0-6.2 0-8.8-7.5-8.8m4.9 3.2c.3.4.4 1 .5 1.8h-.9v-2.2c.2.1.3.3.4.4m.6 5.6v.2h-1v-3h1zm-2 4.2h-3v-3h3zm-7 0v-3h3v3zm-2-4.2c0-1 0-1.9 0-2.8h1v3h-1c0-.1 0-.2 0-.2m2-2.8h3v3h-3zm4-4c1.4 0 2.4.2 3 .3v2.7h-3zm-1 3h-3v-2.6c.6-.2 1.6-.4 3-.4zm1 4v-3h3v3zm-5-6.2v2.2h-.9c.1-.8.2-1.4.5-1.8.1-.1.2-.2.4-.4m-.8 7.2h.8v1.7c-.3-.6-.6-1.1-.8-1.7m2.8 4h2v1.3l-.2-.1c-.6-.2-1.2-.7-1.8-1.2m3.2 1.3h-.2v-1.3h2c-.6.5-1.2 1-1.8 1.3m3.8-3.6v-1.7h.8c-.2.5-.5 1.1-.8 1.7z"/></svg>

<?xml version="1.0" encoding="UTF-8"?><!DOCTYPE svg PUBLIC "-//W3C//DTD SVG 1.1//EN" "http://www.w3.org/Graphics/SVG/1.1/DTD/svg11.dtd"><svg xmlns="http://www.w3.org/2000/svg" xmlns:xlink="http://www.w3.org/1999/xlink" version="1.1" id="mdi-racquetball" width="24" height="24" viewBox="0 0 24 24"><path d="M18.5,16C19.9,16 21,17.1 21,18.5C21,19.9 19.9,21 18.5,21C17.1,21 16,19.9 16,18.5C16,17.1 17.1,16 18.5,16M10.5,1C3,1 3,3.7 3,9.8C3,13.2 6.4,16.9 9,18.1V23H12V18.1C14.6,16.9 18,13.2 18,9.8C18,3.6 18,1 10.5,1M15.4,4.2C15.7,4.6 15.8,5.2 15.9,6H15V3.8C15.2,3.9 15.3,4.1 15.4,4.2M16,9.8C16,9.9 16,10 16,10H15V7H16C16,7.8 16,8.7 16,9.8M14,14H11V11H14V14M7,14V11H10V14H7M5,9.8C5,8.8 5,7.9 5,7H6V10H5C5,9.9 5,9.8 5,9.8M7,7H10V10H7V7M11,3C12.4,3 13.4,3.2 14,3.3V6H11V3M10,6H7V3.4C7.6,3.2 8.6,3 10,3V6M11,10V7H14V10H11M6,3.8V6H5.1C5.2,5.2 5.3,4.6 5.6,4.2C5.7,4.1 5.8,4 6,3.8M5.2,11H6V12.7C5.7,12.1 5.4,11.6 5.2,11M8,15H10V16.3L9.8,16.2C9.2,16 8.6,15.5 8,15M11.2,16.3H11V15H13C12.4,15.5 11.8,16 11.2,16.3M15,12.7V11H15.8C15.6,11.5 15.3,12.1 15,12.7Z" /></svg>
